X:1
T:Title
%%score { ( 1 3 ) | ( 2 4 ) }
L:1/8
M:4/4
K:Bb
V:1 treble nm="Grand Piano"
V:3 treble 
V:2 bass 
V:4 bass 
V:1
 z4 z2[Q:1/4=100] [B,D][CE] | [DF]2 [DF]2 [FB]3 [FA] | G2 B2 F4 | B B2 B [=EB]2 [EA][EB] | %4
[M:3/4] [Ec]6 |[M:1/4] [B,D][CE] |[M:4/4] [DF]2 [DF]2 [FB]3 [FA] | G2 B2 F4 | %8
 [DB] [DB]2 [DB] A2 d>c | [DB]6 z2 | [DB] [DB]2 [DB] [EB]2 [A,EA]>[B,EG] | [DF]6 z2 | %12
 B B2 B [=EB]2 [EA]>[EB] | c6[K:bass][K:treble] z2 | [Ec][DB][DB][DB] [DB]2 [DB][FB] | %15
 [FA]GGG [=Ec]4 | B B2 B A2 d>c |[M:3/4] [DB]6 |] %18
V:2
 z4 z2 [B,,F,][B,,F,] | [B,,B,]2 [B,,B,]2 [D,B,]3 [E,B,] | [E,B,E]2 [G,B,E]2 [B,D]4 | %3
 [G,B,D] [G,B,D]2 [G,B,D] [C,B,]2 [C,C][C,G,] |[M:3/4] [F,A,]6 |[M:1/4] [B,,F,][B,,F,] | %6
[M:4/4] [B,,B,]2 [B,,B,]2 [D,B,]3 [D,B,] | [E,B,E]2 [G,B,E]2 [B,D]4 | %8
 [B,,B,] [B,,B,]2 [B,,B,] [F,CE]2 [F,B,F]>[F,A,E] | [B,,B,]6 z2 | %10
 [B,,F,] [B,,F,]2 [B,,F,] [B,,G,]2 B,,>B,, | B,,B,,D,F, B,2 z2 | %12
 [G,B,D] [G,B,D]2 [G,B,D] [C,C]2 [C,C]>[C,G,] | [A,E]6 z2 | %14
 [B,,B,][B,,B,][B,,B,][B,,B,] [B,,B,]2 [B,,B,][D,B,] | [E,B,][E,B,E][E,B,E][E,B,E] [C,B,]4 | %16
 [F,B,D] [F,DF]2 [F,DF] [F,CF]2 [F,B,F]>[F,A,E] |[M:3/4] [B,,B,]6 |] %18
V:3
 x8 | x8 | x8 | x8 |[M:3/4] x6 |[M:1/4] x2 |[M:4/4] x8 | x8 | x8 | x8 | x8 | B,4 z4 | x8 | %13
 z[K:bass] F,F,G, F,E,[K:treble][Fd][Ec] | x8 | x8 | x8 |[M:3/4] x6 |] %18
V:4
 x8 | x8 | x8 | x8 |[M:3/4] x6 |[M:1/4] x2 |[M:4/4] x8 | x8 | x8 | x8 | x8 | x8 | x8 | %13
 .F,2 z2 z2 [D,B,][F,A,] | x8 | x8 | x8 |[M:3/4] x6 |] %18

